X: 1
T: LITTLE PEGGY'S -- JIG
B: Ryan's Mammoth Collection of Fiddle Tunes
R: jig
M: 6/8
L: 1/8
Z: Contributed 20010701012723 by John Chambers jmchambers:rcn.net
K: G
uG \
| GBd gfg | edc cBA | GBd efg | fdd d2f \
| gbg afd | cde dBG | GAB cAd | BGG G2 :|
|: uc \
| BGB cde | dBG A2G | GBd efg | fdd d2f \
| gbg afd | cde dBG | GAB cAd | BGG G2 :|
